flaticon/grooming/deodorant.svg

<svg xmlns="http://www.w3.org/2000/svg" width="32" height="32" viewBox="0 0 24 24">
    <path d="M23.585938 9.21875L23.167969 9.21875C22.96875 6.96875 21.09375 5.222656 18.792969 5.222656L18.792969 4.824219 19.589844 4.824219C19.832031 4.824219 19.988281 4.664062 19.988281 4.425781L19.988281 2.027344C19.988281 1.789062 19.832031 1.628906 19.589844 1.628906L17.195312 1.628906C16.953125 1.628906 16.792969 1.789062 16.792969 2.027344L16.792969 4.425781C16.792969 4.664062 16.953125 4.824219 17.195312 4.824219L17.992188 4.824219 17.992188 5.222656C15.691406 5.222656 13.816406 6.96875 13.617188 9.21875L13.199219 9.21875C12.957031 9.21875 12.800781 9.378906 12.800781 9.617188L12.800781 23.601562C12.800781 23.839844 12.957031 24 13.199219 24L23.585938 24C23.824219 24 23.984375 23.839844 23.984375 23.601562L23.984375 9.617188C23.984375 9.378906 23.824219 9.21875 23.585938 9.21875zM17.59375 3.625L17.992188 3.625C18.230469 3.625 18.390625 3.464844 18.390625 3.226562 18.390625 2.984375 18.230469 2.828125 17.992188 2.828125L17.59375 2.828125 17.59375 2.425781 19.191406 2.425781 19.191406 4.023438 17.59375 4.023438zM18.03125 6.023438L18.832031 6.023438C20.667969 6.023438 22.1875 7.421875 22.386719 9.21875L14.4375 9.21875C14.636719 7.421875 16.15625 6.023438 18.03125 6.023438zM13.597656 19.207031L17.59375 19.207031C17.832031 19.207031 17.992188 19.046875 17.992188 18.804688 17.992188 18.566406 17.832031 18.40625 17.59375 18.40625L13.597656 18.40625 13.597656 17.207031 16.792969 17.207031C17.035156 17.207031 17.195312 17.046875 17.195312 16.808594 17.195312 16.570312 17.035156 16.410156 16.792969 16.410156L13.597656 16.410156 13.597656 15.210938 15.59375 15.210938C15.835938 15.210938 15.996094 15.050781 15.996094 14.8125 15.996094 14.570312 15.835938 14.414062 15.59375 14.414062L13.597656 14.414062 13.597656 13.214844 19.191406 13.214844 19.191406 20.40625 13.597656 20.40625zM23.1875 23.199219L13.597656 23.199219 13.597656 21.203125 19.589844 21.203125C19.832031 21.203125 19.988281 21.042969 19.988281 20.804688L19.988281 12.8125C19.988281 12.574219 19.832031 12.414062 19.589844 12.414062L13.597656 12.414062 13.597656 10.015625 23.1875 10.015625zM13.597656 3.625L13.996094 3.625C14.238281 3.625 14.398438 3.464844 14.398438 3.226562 14.398438 2.984375 14.238281 2.828125 13.996094 2.828125L13.597656 2.828125C13.359375 2.828125 13.199219 2.984375 13.199219 3.226562 13.199219 3.464844 13.359375 3.625 13.597656 3.625zM8.804688 3.625L9.203125 3.625C9.441406 3.625 9.601562 3.464844 9.601562 3.226562 9.601562 2.984375 9.441406 2.828125 9.203125 2.828125L8.804688 2.828125C8.5625 2.828125 8.40625 2.984375 8.40625 3.226562 8.40625 3.464844 8.5625 3.625 8.804688 3.625zM10.402344 3.625L10.800781 3.625C11.042969 3.625 11.199219 3.464844 11.199219 3.226562 11.199219 2.984375 11.042969 2.828125 10.800781 2.828125L10.402344 2.828125C10.164062 2.828125 10.003906 2.984375 10.003906 3.226562 10.003906 3.464844 10.164062 3.625 10.402344 3.625zM12.398438 3.625C12.640625 3.625 12.800781 3.464844 12.800781 3.226562 12.800781 2.984375 12.640625 2.828125 12.398438 2.828125L12 2.828125C11.761719 2.828125 11.601562 2.984375 11.601562 3.226562 11.601562 3.464844 11.761719 3.625 12 3.625zM12.398438 3.625"/>
    <path d="M15.195312 3.625L15.59375 3.625C15.835938 3.625 15.996094 3.464844 15.996094 3.226562 15.996094 2.984375 15.835938 2.828125 15.59375 2.828125L15.195312 2.828125C14.957031 2.828125 14.796875 2.984375 14.796875 3.226562 14.796875 3.464844 14.957031 3.625 15.195312 3.625zM13.597656 1.789062L13.957031 1.90625C13.996094 1.949219 14.039062 1.949219 14.078125 1.949219 14.238281 1.949219 14.398438 1.828125 14.476562 1.667969 14.515625 1.429688 14.398438 1.226562 14.238281 1.148438L13.878906 1.027344C13.636719.949219 13.4375 1.070312 13.359375 1.269531 13.277344 1.507812 13.398438 1.707031 13.597656 1.789062zM15.117188 2.265625L15.476562 2.386719C15.515625 2.425781 15.554688 2.425781 15.59375 2.425781 15.753906 2.425781 15.914062 2.347656 15.953125 2.1875 16.035156 1.949219 15.914062 1.746094 15.714844 1.667969L15.394531 1.507812C15.15625 1.429688 14.957031 1.546875 14.875 1.746094 14.796875 1.988281 14.917969 2.1875 15.117188 2.265625zM11.199219.109375L10.960938.03125C10.722656-.0507812 10.523438.03125 10.441406.269531 10.363281.507812 10.480469.710938 10.683594.789062L10.921875.867188C10.960938.910156 11 .910156 11.042969.910156 11.199219.910156 11.359375.828125 11.441406.628906 11.519531.390625 11.402344.191406 11.199219.109375zM12.039062 1.269531L12.4375 1.386719C12.480469 1.429688 12.519531 1.429688 12.558594 1.429688 12.71875 1.429688 12.878906 1.308594 12.917969 1.148438 13 .910156 12.878906.710938 12.679688.628906L12.320312.507812C12.078125.429688 11.878906.550781 11.800781.75 11.71875.988281 11.839844 1.1875 12.039062 1.269531zM12.957031 5.304688C12.878906 5.105469 12.640625 4.984375 12.441406 5.0625L12.078125 5.183594C11.878906 5.261719 11.761719 5.503906 11.839844 5.703125 11.878906 5.863281 12.039062 5.984375 12.199219 5.984375 12.238281 5.984375 12.28125 5.941406 12.359375 5.941406L12.71875 5.824219C12.917969 5.742188 13.039062 5.503906 12.957031 5.304688zM10.921875 5.542969L10.683594 5.621094C10.480469 5.703125 10.363281 5.941406 10.441406 6.140625 10.480469 6.300781 10.640625 6.421875 10.800781 6.421875 10.839844 6.421875 10.882812 6.421875 10.960938 6.382812L11.199219 6.300781C11.402344 6.222656 11.519531 5.984375 11.441406 5.78125 11.359375 5.582031 11.121094 5.464844 10.921875 5.542969zM13.957031 4.542969L13.597656 4.664062C13.398438 4.742188 13.277344 4.984375 13.359375 5.183594 13.398438 5.34375 13.558594 5.464844 13.71875 5.464844 13.757812 5.464844 13.796875 5.464844 13.878906 5.421875L14.238281 5.304688C14.4375 5.222656 14.558594 4.984375 14.476562 4.785156 14.398438 4.585938 14.15625 4.464844 13.957031 4.542969zM15.476562 4.023438L15.117188 4.144531C14.917969 4.226562 14.796875 4.464844 14.875 4.664062 14.917969 4.824219 15.078125 4.945312 15.234375 4.945312 15.277344 4.945312 15.316406 4.945312 15.394531 4.902344L15.753906 4.785156C15.953125 4.703125 16.074219 4.464844 15.996094 4.265625 15.914062 4.066406 15.675781 3.945312 15.476562 4.023438zM7.84375 14.453125L3.332031 14.453125C1.492188 14.453125.015625 15.929688.015625 17.769531L.015625 24 11.160156 24 11.160156 17.769531C11.160156 15.929688 9.683594 14.453125 7.84375 14.453125zM10.402344 23.199219L.8125 23.199219.8125 17.769531C.8125 16.371094 1.933594 15.25 3.332031 15.25L7.886719 15.25C9.285156 15.25 10.402344 16.371094 10.402344 17.769531zM10.402344 23.199219"/>
</svg>

<svg xmlns="http://www.w3.org/2000/svg" width="32" height="32" viewBox="0 0 24 24">
    <path d="M23.586 9.219h-.418a4.379 4.379 0 0 0-4.375-3.996v-.399h.797c.242 0 .398-.16.398-.398V2.027c0-.238-.156-.398-.398-.398h-2.395c-.242 0-.402.16-.402.398v2.399c0 .238.16.398.402.398h.797v.399a4.379 4.379 0 0 0-4.375 3.996H13.2c-.242 0-.398.16-.398.398v13.985c0 .238.156.398.398.398h10.387c.238 0 .398-.16.398-.398V9.617c0-.238-.16-.398-.398-.398zm-5.992-5.594h.398c.238 0 .399-.16.399-.398 0-.243-.16-.399-.399-.399h-.398v-.402h1.597v1.597h-1.597zm.437 2.398h.801c1.836 0 3.355 1.399 3.555 3.196h-7.95a3.599 3.599 0 0 1 3.594-3.196zm-4.433 13.184h3.996c.238 0 .398-.16.398-.402 0-.239-.16-.399-.398-.399h-3.996v-1.199h3.195c.242 0 .402-.16.402-.398 0-.239-.16-.399-.402-.399h-3.195v-1.2h1.996c.242 0 .402-.16.402-.398 0-.242-.16-.398-.402-.398h-1.996v-1.2h5.593v7.192h-5.593zm9.59 3.992h-9.59v-1.996h5.992c.242 0 .398-.16.398-.398v-7.992c0-.239-.156-.399-.398-.399h-5.992v-2.398h9.59zm0 0M13.598 3.625h.398c.242 0 .402-.16.402-.398 0-.243-.16-.399-.402-.399h-.398c-.239 0-.399.156-.399.399 0 .238.16.398.399.398zm0 0M8.805 3.625h.398c.238 0 .399-.16.399-.398 0-.243-.16-.399-.399-.399h-.398c-.242 0-.399.156-.399.399 0 .238.156.398.399.398zm0 0M10.402 3.625h.399c.242 0 .398-.16.398-.398 0-.243-.156-.399-.398-.399h-.399c-.238 0-.398.156-.398.399 0 .238.16.398.398.398zm0 0M12.398 3.625c.243 0 .403-.16.403-.398 0-.243-.16-.399-.403-.399H12c-.238 0-.398.156-.398.399 0 .238.16.398.398.398zm0 0"/>
    <path d="M15.195 3.625h.399c.242 0 .402-.16.402-.398 0-.243-.16-.399-.402-.399h-.399c-.238 0-.398.156-.398.399 0 .238.16.398.398.398zm0 0M13.598 1.79l.359.116c.04.043.082.043.121.043.16 0 .32-.12.399-.281.039-.238-.079-.441-.239-.52l-.36-.12a.401.401 0 0 0-.519.242c-.082.238.04.437.239.52zm0 0M15.117 2.266l.36.12c.039.04.078.04.117.04.16 0 .32-.078.36-.239a.398.398 0 0 0-.24-.519l-.32-.16a.402.402 0 0 0-.519.238.401.401 0 0 0 .242.52zm0 0M11.2.11L10.96.03c-.237-.082-.437 0-.519.239a.4.4 0 0 0 .243.52l.238.077c.039.043.078.043.121.043a.422.422 0 0 0 .398-.281.401.401 0 0 0-.242-.52zm0 0M12.04 1.27l.398.117c.042.043.082.043.12.043.16 0 .32-.121.36-.282.082-.238-.04-.437-.238-.52l-.36-.12a.401.401 0 0 0-.52.242c-.081.238.04.438.24.52zm0 0M12.957 5.305c-.078-.2-.316-.32-.516-.242l-.363.12c-.2.079-.316.32-.238.52.039.16.2.281.36.281.038 0 .081-.043.16-.043l.359-.117c.199-.082.32-.32.238-.52zm0 0M10.922 5.543l-.238.078c-.204.082-.32.32-.243.52.04.16.2.28.36.28.039 0 .082 0 .16-.038l.238-.082a.414.414 0 0 0 .242-.52c-.082-.199-.32-.316-.52-.238zm0 0M13.957 4.543l-.36.121c-.199.078-.32.32-.238.52.04.16.2.28.36.28.039 0 .078 0 .16-.042l.36-.117c.198-.082.32-.32.238-.52-.079-.2-.32-.32-.52-.242zm0 0M15.477 4.023l-.36.122c-.199.082-.32.32-.242.52a.39.39 0 0 0 .36.28c.042 0 .081 0 .16-.043l.359-.117c.2-.082.32-.32.242-.52-.082-.199-.32-.32-.52-.242zm0 0M7.844 14.453H3.332A3.306 3.306 0 0 0 .016 17.77V24H11.16v-6.23a3.306 3.306 0 0 0-3.316-3.317zm2.558 8.746H.812v-5.43a2.51 2.51 0 0 1 2.52-2.519h4.555a2.507 2.507 0 0 1 2.515 2.52zm0 0"/>
</svg>
